X: 43479
T: Yellow Rose Of Texas
R: polka
M: 2/4
K: Dmajor
|:F/G/|"D" [AD][AD] "G" B>B|"D" [AD] [A2F2] [AD]|"D" [AD]d de|"D" [d2f2][df][df]|
"G" gf ed|"D" [Af][Ae] dB|"A" Ac e/d/c|"D" [D2d2] [Dd]:|
|:e/e/|"D" [Af]g [Aa][A/a/][A/a/]|"D" [Af]g [Aa][A/a/][A/a/]|"A" [Ae][Af] gg/f/|"A" [Ae][Af] gg/g/|
"D" [Af]g [Aa][A/a/][A/a/]|"D" [Af]g [Aa][A/a/][A/a/]|"A" [Ae][Af] g/f/e|"D" [D2d2] [Dd]:|

